X: 14
T: The Swallow's Tail
R: reel
M: 4/4
L: 1/8
K: Ador
e3d eA~A2|eAfA g3a|gedB dG~G2|BGBd g2fg|!
egfg eA~A2|eAfA g3a|bagb aged|e/f/g dB A2Bd:||!
eaag aged|B/c/d ef g3a|gedB dG~G2|BGBd g2fg|!
eaag aged|B/c/d ef g3a|bagb aged|e/f/g dB A2Bd:||


Tune 105	Setting 22735

